X:1
T:James Gibb editions
T:Dona nobis pacem - Beethoven
T:#
%%score [ 1 2 3 4 ]
L:1/8
Q:1/4=76
M:4/4
K:C
V:1 treble nm="Soprano" snm="S"
V:2 treble nm="Alto" snm="A"
V:3 treble-8 nm="Tenor" snm="T"
V:4 bass nm="Bass" snm="B"
V:1
"^Dona nobis pacem""^Ludwig van Beethoven\n(1770-1827)" z8 | z8 | z8 | z8 | z4 c3 c | %5
w: ||||Do- na|
 B2 e2 z (c/B/ c/A/d/c/) | B (d/c/ d/B/e/d/ c2 TB2) | A2 z (A- A2 ^G2) | A2 z2 z4 | z8 | z8 | %11
w: no- bis pa\- * * * * *|cem, pa\- * * * * * * *|cem, pa\- * *|cem,|||
 B3 B G2 c2 | z (A/G/ A/^F/B/A/) G2 e2- | e2 d4 c2- | cB A2 B2 z2 | z4 d3 d | %16
w: Do- na no- bis|pa\- * * * * * cem, Do\-|* na no\-|* bis pa- cem,|Do- na|
 B2 e2 z (c/B/ c/A/d/c/) | B (B/A/ B/G/c/B/) A (A/G/ A/^F/B/A/) |"^," G (B^c^d e4- | e2) ^d2 e4- | %20
w: no- bis pa\- * * * * *|cem, pa\- * * * * * cem, pa\- * * * * *|cem, Do\- * * *|* na no\-|
 e2 d4 (c2- | c2 B2) c (c/B/ c/A/d/c/) | B2 z2 z (_B/A/ B/G/c/B/ | A2 =B2) c2 z2 | z4 c3 c | %25
w: * bis pa\-|* * cem, pa\- * * * * *|cem, pa\- * * * * *|* * cem,|Do- na|
 A2 d2 z (_B/A/ B/G/c/B/) | A (A/G/ A/F/_B/A/) G (G/F/ G/E/A/G/) | G2 (D2 E2 A2- | A2 ^G2) A2 z2 | %29
w: no- bis pa\- * * * * *|cem, pa\- * * * * * cem, pa\- * * * * *|cem, pa\- * *|* * cem,|
 z8 | z4 z (d/^c/ d/B/e/d/) | ^c4 =c (c/B/ c/A/d/c/ | B4)"^," _B (B/A/ B/G/c/B/) | %33
w: |pa\- * * * * *|* cem, pa\- * * * * *|* cem, pa\- * * * * *|
 A c2 !courtesy!=B ce (dc) | B2 z2 z4 | z8 | z4 c3 c | A2 d2 z (c/B/ c/A/d/c/) | B2 e2- ed z d- | %39
w: cem, Do- na no- bis pa\- *|cem,||Do- na|no- bis pa\- * * * * *|cem, Do\- * na no\-|
 dc z c- cc (cB) | c2 z2 z4 | z8 | c3 c B2 e2 | z (c/B/ c/A/d/c/) B (d/c/ d/B/e/d/) | %44
w: * bis pa\- * cem, pa\- *|cem,||Do- na no- bis|pa\- * * * * * cem, pa\- * * * * *|
 c (c/B/ c/A/d/c/) B (B/A/ B/G/c/B/) | A (B/c/ d/e/f- f e2 d- | %46
w: cem, pa\- * * * * * cem, pa\- * * * * *|cem, pa\- * * * * * * *|
[Q:1/4=75] d[Q:1/4=74] c2[Q:1/4=74] B)"^,"[Q:1/4=73] c2[Q:1/4=72] G[Q:1/4=72]G | %47
w: * * * cem. A- men,|
[Q:1/4=71] A2[Q:1/4=70] _B2[Q:1/4=69] A4 |[Q:1/4=66] G8- |[Q:1/4=64] G8 |] %50
w: A- men, A-|men.||
V:2
 z8 | z8 | z8 | G3 G E2 A2 | z (F/E/ F/D/G/F/ E2) C2 | z (G E) (^F/G/) A2 F2 | G2 ^G2 (A/E/ A2 G) | %7
w: |||Do- na no- bis|pa\- * * * * * * cem,|Do\- * na * no- bis|pa- cem, pa\- * * *|
 A2 z2 z4 | E3 E C2 F2 | z (D/C/ D/B,/E/D/ C2) A,2 | z8 | z4 E3 E | (^DE ^F2) E (B/A/ B/G/c/B/) | %13
w: cem,|Do- na no- bis|pa\- * * * * * * cem,||Do- na|no\- * * bis pa\- * * * * *|
 A (A/G/ A/^F/B/A/) G (G/F/ G/E/A/G/) |"^," ^F G2 F G4 | G2 ^F2 G2 (BA | G^FGE AG) F2 | %17
w: cem, pa\- * * * * * cem, pa\- * * * * *|cem, Do- na no-|bis pa- cem, Do\- *|* * * * * * na|
 (G^F) E2 (FE ^D2) |"^," E (^DE^F) (GA/B/ AG) | ^F4 G4 | ^F4 E4 | D3 D (E2 ^F2) | %22
w: no\- * bis pa\- * *|cem, Do\- * * na * * * *|no- bis|pa- cem,|Do- na no\- *|
 G (=F/E/ F/D/G/F/) E2 z2 | F3 F E2 A2 | z (F/E/ F/D/G/F/) E2 C2 | z (F D) (E/F/) G2 E2 | %26
w: bis pa\- * * * * * cem,|Do- na no- bis|pa\- * * * * * * cem,|Do\- * na * no- bis|
 F2 D2 (E2 ^C2) |"^," D (D/E/ F/E/F/G/) A2 (C2 | B,4)"^," A, (^CD)E | (FE) D2 z4 | %30
w: pa- cem, pa\- *|cem, pa\- * * * * * cem, pa\-|* cem, Do\- * na|no\- * bis|
 z (A/G/ A/F/_B/A/) ^G4 |"^," G (G/^F/ G/E/A/G/ F4) |"^," F (F/E/ F/D/G/F/ E4) | %33
w: pa\- * * * * * *|cem, pa\- * * * * * *|cem, pa\- * * * * * *|
"^," F (GAG) G2 z2 | z8 | z8 | G3 G C2 A2 | z (F/E/ F/D/G/F/ E4) | %38
w: cem, pa\- * * cem,|||Do- na no- bis|pa\- * * * * * *|
"^," G (B/A/ B/G/c/B/) A (A/G/ A/F/_B/A/) | G (G/F/ G/E/F/G/ AG F2) | E2 z2 G3 G | %41
w: cem, pa\- * * * * * cem, pa\- * * * * *|cem, pa\- * * * * * * * *|cem, Do- na|
 E2 A2 z (F/E/ F/D/G/F/) |"^," E (CE) ^F G2 B2 | (E2 ^F2) G2 BB | A4 G4 | (F2- F/G/A/F/ G2 F2 | %46
w: no- bis pa\- * * * * *|cem, Do\- * na no- bis|pa\- * cem, Do- na|no- bis|pa\- * * * * * *|
 EG- G2)"^," G2 EE | F2 G2 F4 | E8- | E8 |] %50
w: * * * cem. A- men,|A- men, A-|men.||
V:3
 z8 | z4 c3 c | B2 e2 z (c/B/ c/A/d/c/ | B2) G2 z (c A) (B/c/) | d2 B2 (c2 BA) | G2 z2 z4 | z8 | %7
w: |Do- na|no- bis pa\- * * * * *|* cem, Do\- * na *|no- bis pa\- * *|cem,||
 z2 cc B4 | c2 z2 z4 | z4 A3 A | G2 c2 z (A/G/ A/^F/B/A/ | G2) E2 z (EA)G | ^FE ^D2 E2 z2 | z8 | %14
w: Do- na no-|bis|Do- na|no- bis pa\- * * * * *|* cem, Do\- * na|no- bis pa- cem,||
 z2 d3 dBG | A4 G2 z2 | z8 | z6 B2- | B2 B2 G2 c2 | z (A/G/ A/^F/B/A/) G2 E2 | c2 B4 A2- | %21
w: Do- na no- bis|pa- cem,||Do\-|* na no- bis|pa\- * * * * * cem, Do-|na no- bis|
 A2 G2 G2 z2 | z8 | z4 z (c A) (B/c/) | d2 B2 (c_BAG) | F2 z2 z4 | z8 | z8 | z4 A3 A | %29
w: * pa- cem,||Do\- * na *|no- bis pa\- * * *|cem,|||Do- na|
 F2 _B2 z (G/F/ G/E/A/G/) | F2 z4 e2- | e2 A2 z2 d2- | d2 G2 z2 (c2- | ce) f2 (ecBA) | G2 z2 c3 c | %35
w: no- bis pa\- * * * * *|cem, Do\-|* na no\-|* bis pa\-|* * cem, Do\- * * *|na no- bis|
 A2 d2 z (c/B/ c/A/d/c/) | B (dcB) e2 z2 | z8 | z8 | z8 | c3 c B2 e2 | z (c/B/ c/A/d/c/ B2) G2 | %42
w: pa- cem, pa\- * * * * *|cem, pa\- * * cem,||||Do- na no- bis|pa\- * * * * * * cem|
 c2 A2 G (G/!courtesy!=F/ G/E/F/G/ | A4) G2 g2- | g2 f4 e2- | e2 (dc) (Bc/B/ AB/A/ | %46
w: pa\- * cem, pa\- * * * * *|* cem, Do\-|* na no\-|* bis * pa\- * * * * *|
 Ge d2)"^," e2 cc | c2 c2 c4 | c8- | c8 |] %50
w: * * * cem. A- men,|A- men, A-|men.||
V:4
 G,3 G, E,2 A,2 | z (F,/E,/ F,/D,/G,/F,/ E,2) C,2 | z (G, E,) (^F,/G,/) A,2 F,2 | %3
w: Do- na no- bis|pa\- * * * * * * cem,|Do\- * na * no- bis|
 (G,F,E,D,) C,2 z2 | z8 | z8 | z4 z2 E,>E, | C,2 F,2 z (D,/C,/ D,/B,,/E,/D,/ | %8
w: pa\- * * * cem,|||Do- na|no- bis pa\- * * * * *|
 C,2 A,,2 z (A, F,) G,/A,/) | (B,A,) ^G,2 (A,=G,) ^F,2- | F, (E,/D,/ E,A,/G,/ ^F,E, ^D,2) | %11
w: * cem, Do\- * na *|no\- * bis pa\- * cem,|* pa\- * * * * * * *|
 E,2 z2 z4 | z4 E,2 G,2 | ^F,2 B,2 E,2 A,2 | D,3 D, B,,2 E,2 | z (C,/B,,/ C,/A,,/D,/C,/) B,,2 z2 | %16
w: cem,|Do- na|no- bis pa- cem,|Do- na no- bis|pa\- * * * * * cem,|
 z8 | z8 | z8 | z4 z (B,/A,/ B,/G,/C/B,/) | A, (A,/G,/ A,/^F,/B,/A,/) G, (G,/=F,/ G,/E,/A,/G,/) | %21
w: |||pa\- * * * * *|cem, pa\- * * * * * cem, pa\- * * * * *|
 F, (F,/E,/ F,/D,/G,/F,/) E,2 A,2 | G,4 (C,4- | D,4) C,2 z2 | z8 | z8 | z8 | D,3 D, C,2 F,2 | %28
w: cem, pa\- * * * * * cem, pa-|cem, pa\-|* cem,||||Do- na no- bis|
 z (D,/C,/ D,/B,,/E,/D,/)"^," ^C, (A,,_B,,)C, | (D,!courtesy!=C,) _B,, (C,/D,/ E,D, ^C,2) | %30
w: pa\- * * * * * cem, Do\- * na|no\- * bis pa\- * * * *|
 D,4 E,4 | A,4 D,4 | G,4 C,4 | F, (E,D,G,) C,2 z2 | G,3 G, E,2 A,2 | %35
w: cem, Do-|na no-|bis pa-|cem, pa\- * * cem,|Do- na no- bis|
 z (F,/E,/ F,/D,/G,/F,/) E, (A,G,)^F, | G,B, (A,G,) C2 z2 | z8 | %38
w: pa\- * * * * * cem, Do\- * na|no- bis pa\- * cem,||
 z (G,/F,/ G,/E,/A,/G,/) F, (F,/E,/ F,/D,/G,/F,/) | E, (E,/D,/ E,/C,/F,/E,/ F,E, D,2) | C,2 z2 z4 | %41
w: pa\- * * * * * cem, pa\- * * * * *|cem, pa\- * * * * * * * *|cem,|
 z8 | z8 | z4 G,4- | G,8 | G,8 | G,4"^," C,2 C,C, | F,2 E,2 F,4 | C,8- | C,8 |] %50
w: ||pa\-|||* cem. A- men,|A- men, A-|men.||

